X:60
T:Tahtisilma valssi (harmony)
M:3/4
Q:1/4=160
C:Konsta Jylha (harmony: Dick Atlee)
R:waltz
K:Dm
|: "A7" A2 | "Dm" fAfA f2 | "Gm" e6 | "Dm" dAdA d2 | "A7" ^c6 |
"Dm" F2 A2 d2 | "C" e6 | "C7" c2 B2 G2 | "F" F6 | !
"Dm" A,2 D2 F2 | A2 B2 c2 | "Gm" B4 G2 | "Dm" F2 E2 D2 |
"C" G3 G GA | B6 | "C7" C2 D2 E2 | "F" F6 | !
"Gm" D2 G2 B2 | d4 e2 | g4 f2 | "Dm" d6 |
"E7" =B6 | d2 c2 =B2 | "A7" (A6 | A)B AG FE |!
"Gm" D3 ^C DE | "Dm" F6 | "A7" G3 ^F GA | "Bb" B4 A2 |
"Gm" G4 E2 | "A7" ^C6 | A,2 B,2 ^C2 | "Dm fine" D4 :| !
K:D
|: "A7" E2 | "D" D6 | D2 E2 F2 | "A7" G6 | "G" B,6 |
G,6 | G,3 "A7" B,CE | "D" D6 | "Bm" B,2 C2 D2 | !
"Em" E6 | B,2 E2 F2 | "A7" E4 D2 | C6 |
A,6 | A,2 B,2 C2 | "D" D4 E2 | "A7" F4 A,2 | !
"D" D6 | D2 E2 F2 | "A7" G6 | "G" B,6 |
G,6 | G,3 "A7" B,CE | "D" D6 | "Bm" B,2 C2 D2 | !
"Em" E6 | B,2 C2 E2 | "D" D6 | "Bm" B,6 |
"Em" G,6 | "A7" A,3 B, C2 | "D" D3 E DC | "D.C. al fine" D4 :||
